img/forest_logo.svg

<svg width="79" height="53" viewBox="0 0 79 53" fill="none" xmlns="http://www.w3.org/2000/svg">
<g clip-path="url(#clip0)">
<path d="M28.0131 45.7834H39.8782L35.1905 32.4206H37.4904L26.4608 0L15.4307 32.4206H17.7307L13.043 45.7834H24.9084V49.8953H17.3538V53H35.5673V49.8953H28.0131V45.7834ZM17.4222 42.6792L22.1099 29.3159H19.7662L26.4608 9.63908L33.1553 29.3159H30.8117L35.4994 42.6792H28.0131V27.853H24.9084V42.6792H17.4222Z" fill="white"/>
</g>
<g clip-path="url(#clip1)">
<path d="M54.0847 43.3249C55.0624 42.4426 57.1598 40.4265 59.2694 37.6065C63.0679 32.529 65.0755 27.2432 65.0755 22.3202C65.0755 17.3975 63.0679 12.1117 59.2694 7.03381C56.4425 3.25549 53.6367 0.919106 53.5186 0.821655L52.5251 0L51.5316 0.821655C51.4135 0.919106 48.6077 3.25549 45.7808 7.03381C41.9822 12.1117 39.9746 17.3975 39.9746 22.3202C39.9746 27.2432 41.9822 32.529 45.7808 37.6065C47.8907 40.4265 49.9881 42.4426 50.9659 43.3249V49.8812H43.3773V53H61.6733V49.8812H54.0847V43.3249ZM43.0934 22.3202C43.0934 13.9212 49.9218 6.60923 52.5267 4.12607C55.1332 6.60519 61.9571 13.8998 61.9571 22.3202C61.9571 29.3519 57.1711 35.6207 54.0847 38.9332V27.739H50.9659V38.9397C47.879 35.634 43.0934 29.3726 43.0934 22.3202Z" fill="white"/>
</g>
<defs>
<clipPath id="clip0">
<rect width="53" height="53" fill="white"/>
</clipPath>
<clipPath id="clip1">
<rect width="53" height="53" fill="white" transform="translate(26)"/>
</clipPath>
</defs>
</svg>

<svg width="79" height="53" fill="none" xmlns="http://www.w3.org/2000/svg"><g clip-path="url(#clip0)"><path d="M28.013 45.783h11.865L35.19 32.421h2.3L26.46 0 15.43 32.42h2.3l-4.687 13.363h11.865v4.112h-7.554V53h18.213v-3.105h-7.554v-4.112zm-10.59-3.104l4.687-13.363h-2.344l6.695-19.677 6.694 19.677h-2.343l4.687 13.363h-7.486V27.853h-3.105v14.826h-7.486z" fill="#fff"/></g><g clip-path="url(#clip1)"><path d="M54.085 43.325a41.039 41.039 0 005.184-5.719c3.799-5.077 5.807-10.363 5.807-15.286 0-4.922-2.008-10.208-5.807-15.286C56.443 3.255 53.637.919 53.52.822L52.525 0l-.993.822c-.118.097-2.924 2.433-5.751 6.212-3.799 5.078-5.806 10.364-5.806 15.286 0 4.923 2.007 10.209 5.806 15.286a41.047 41.047 0 005.185 5.719v6.556h-7.589V53h18.296v-3.119h-7.588v-6.556zM43.093 22.32c0-8.399 6.829-15.71 9.434-18.194 2.606 2.48 9.43 9.774 9.43 18.194 0 7.032-4.786 13.3-7.872 16.613V27.74h-3.12v11.2c-3.086-3.305-7.872-9.566-7.872-16.619z" fill="#fff"/></g><defs><clipPath id="clip0"><path fill="#fff" d="M0 0h53v53H0z"/></clipPath><clipPath id="clip1"><path fill="#fff" transform="translate(26)" d="M0 0h53v53H0z"/></clipPath></defs></svg>
